X:1
T:Title
L:1/8
M:4/4
K:Db
V:1 treble nm="Grand Piano"
V:1
 z4 z[Q:1/4=100] BBc | d/e/d/c/ d2- ddcB | BA A2- AAAB | cB c2- ccBA | AG G2- GEEF | %5
 G3 B- B =A2 B | cc c2- cFFG | F3 d- d c2 =A |[M:5/8] cB B3 |[M:3/8] FFG |[M:4/4] GFFE =DE F2 | %11
 E4- EEEF | FEED CEED | D4- DDDC | CB,B,B, B2 G2 | F4- FBBc | d2 BA AB G2 | F6 z2 |] %18

